svg/arrow.svg

<?xml version="1.0" encoding="UTF-8" standalone="no"?>
<svg width="64px" height="20px" viewBox="0 0 64 20" version="1.1" xmlns="http://www.w3.org/2000/svg" xmlns:xlink="http://www.w3.org/1999/xlink" xmlns:sketch="http://www.bohemiancoding.com/sketch/ns">
    <!-- Generator: Sketch 3.1 (8751) - http://www.bohemiancoding.com/sketch -->
    <title>Fill-15 2</title>
    <desc>Created with Sketch.</desc>
    <defs></defs>
    <g id="Page-1" stroke="none" stroke-width="1" fill="none" fill-rule="evenodd" sketch:type="MSPage">
        <g id="Fill-15-2" sketch:type="MSLayerGroup" fill-opacity="0.200000003" fill="#3F3F3F">
            <path d="M63.9505934,11.3409855 C63.9636848,11.3691899 63.9730985,11.3927614 63.9769768,11.4087997 C64.073373,11.8031802 63.8616452,12.0988256 63.4434824,12.3189045 C61.0005203,15.6598639 51.3377582,20.5013795 51.1125995,19.957937 C50.6843532,18.9242014 56.3551465,15.1100546 59.4580716,12.9150845 C57.3781993,12.952342 55.2324701,12.7980413 54.5860953,12.8087968 C48.1710117,12.9150377 41.758606,13.1032643 35.3486722,13.3073773 C28.5034718,13.5253911 21.6582716,13.7458161 14.8136892,13.9713476 C13.4430012,14.0165957 0.0189515027,13.970071 0,14 C0.828510255,12.6889389 12.4731786,12.6183007 14.3751267,12.4899322 C20.7856784,12.0567416 27.1984961,11.6394375 33.6193476,11.285112 C40.0570906,10.9297936 46.5018375,10.63178 52.9525583,10.4177379 C54.2690921,10.3740995 56.8008914,10.0203359 59.1244272,10.0008377 C55.5738484,7.6951989 51.246606,4.94948489 50.0740017,0.855313257 C49.5171357,-1.08819008 52.2877445,0.8955752 52.2279683,0.843859426 C53.6055205,2.03623993 54.8335147,3.40422438 56.2456939,4.55532141 C58.6436433,6.50970634 61.2969088,8.08648079 63.6139993,10.1575269 C63.9782075,10.4829679 64.0701822,10.8858136 63.9505934,11.3409855 Z M63.9431326,11.3684728 C63.9432216,11.368629 63.9433107,11.3687853 63.9433998,11.3689416 C63.9431325,11.368473 63.9431326,11.3684729 63.9431326,11.3684728 Z" sketch:type="MSShapeGroup"></path>
        </g>
    </g>
</svg>

<svg width="64" height="20" viewBox="0 0 64 20" xmlns="http://www.w3.org/2000/svg"><title>Fill-15 2</title><desc>Created with Sketch.</desc><path d="M63.95 11.34c.014.03.023.053.027.07.096.393-.115.69-.534.91-2.442 3.34-12.105 8.18-12.33 7.638-.43-1.034 5.242-4.848 8.345-7.043-2.08.037-4.226-.117-4.872-.106-6.415.105-12.827.293-19.237.497-6.847.218-13.692.44-20.536.664-1.37.047-14.795 0-14.814.03.83-1.31 12.473-1.382 14.375-1.51 6.41-.433 12.823-.85 19.244-1.205 6.437-.355 12.882-.653 19.333-.867 1.316-.044 3.848-.398 6.17-.417-3.55-2.305-7.876-5.05-9.05-9.145-.556-1.943 2.215.04 2.155-.01 1.378 1.19 2.606 2.56 4.018 3.71 2.398 1.955 5.05 3.53 7.368 5.603.364.325.456.728.337 1.183zm-.007.028z" fill-opacity=".2" fill="#3F3F3F"/></svg>
